flags/mz.svg

<svg viewBox="0 0 900 600" xmlns="http://www.w3.org/2000/svg"><path d="m0 0h900v600h-900z"/><path d="m0 0h900v206.25h-900z" fill="#fff"/><path d="m0 0h900v187.5h-900z" fill="#007168"/><path d="m0 393.5h900v206.5h-900z" fill="#fff"/><path d="m0 412.5h900v187.5h-900z" fill="#fce100"/><path d="m0 0v600l393.75-300z" fill="#d21034"/><path d="m189.54603 214.56867-60.76034-42.57244-58.855159 45.07437 21.71282-70.94213-61.055514-42.04584 74.179603-1.2722 21.12078-71.060124 24.13269 70.155864 74.10887-1.87174-59.26477 44.63092z" fill="#fce100" transform="matrix(1.221793 .02542786 -.02542786 1.221793 -21.7604 145.5065)"/><g stroke="#000" stroke-linecap="round" stroke-linejoin="round" stroke-width="1.25" transform="matrix(1.259719 0 0 1.259719 -29.41569 140.9042)"><path d="m77.1122 167.913h41.8338c3.366 3.776 10.876 5.316 18.029-.045 13.112-7.18 38.479.045 38.479.045l4.995-5.307-12.176-39.961-4.371-4.683s-9.365-5.619-27.161-3.746c-17.795 1.873-24.039-.624-24.039-.624s-15.6093 1.873-19.9801 4.058c-.4805.389-4.9951 4.995-4.9951 4.995z" fill="#fff" fill-rule="evenodd"/><path d="m85.5415 157.611s39.9605-4.995 51.5125 10.302c-6.524 4.464-12.268 4.832-18.42.313.98-1.633 14.361-15.61 48.39-10.927" fill="none"/><path d="m128.312 117.65-.312 44.02m35.902-43.396 7.493 34.966m-78.2611-35.515-4.1583 18.032"/><path d="m49.9417 172.706 9.8382 11.535c1.1553.689 2.1815.645 3.2077 0l14.5805-17.496 6.1238-7.582c.9482-1.123 1.2509-2.376 1.1664-3.499l11.7074-10.403c.9577.066 1.5281.174 2.4858.239-1.1315-.293-1.9617-.844-1.0708-2.084l2.6243-2.041 2.041 2.624s-2.9156 3.791-3.2072 3.791-3.2077 0-3.2077 0l-6.1238 5.541 2.677 2.366 4.03 11.048 4.9577-3.5-3.2081-11.372 6.9991-7.582-2.625-4.083 1.75-2.333s24.222 15.25 33.554 11.168c.252.091.564-10.876.564-10.876s-25.078-2.624-25.662-7.582c-.583-4.957 5.541-5.54 5.541-5.54l-2.625-3.791.584-2.042 4.374 5.541 9.915-8.457 58.321 66.487c3.184-1.291 3.864-2.07 4.083-5.249-.082-.08-57.155-65.612-57.155-65.612l4.374-4.665c.862-.972 1.165-1.385 1.166-2.917l6.707-5.8318c2.017.6929 3.303 1.9018 4.374 3.4988l18.439-15.6269c.486.486 1.962.972 2.964.4254l30.485-29.2613-33.225 23.4674-1.166-.8748c0-.9721 1.205-1.2125 0-2.9161-1.291-1.5491-3.208 1.4581-3.499 1.4581-.292 0-4.809-1.5964-5.799-3.6188l-.325 5.3684-8.457 7.8735-6.415-.2916-9.332 9.0398-1.166 3.4989 1.458 2.917s-4.958 4.374-4.958 4.082c0-.291-1.002-1.289-1.045-1.418l4.253-3.831.583-2.6243-1.419-2.2158c-.43.3125-5.871 6.0071-6.163 5.4231-.486-.544-15.746-17.7878-15.746-17.7878l.874-3.2077-9.914-10.7896c-3.6145-1.2479-9.3318-1.458-10.4982 6.4154-.9083 1.8493-8.4567.2916-8.4567.2916l-4.0825.8749-23.0372 32.6602 12.8308 15.455 26.2449-33.2432.7791-9.4176 5.5068 6.1573c1.836.2359 3.585.2566 5.249-.5832l15.549 17.3557-2.589 2.526c.875.972 1.477 1.593 2.352 2.565.875-.583 1.71-1.283 2.585-1.867.292.39.778 1.129 1.07 1.518-1.303.709-2.217 1.653-3.52 2.362-2.085-1.359-4.098-3.051-3.945-5.744l-8.748 7.29-.292 1.458-25.9529 21.579-2.3329.292-.5832 6.707 16.9133-13.997v-2.042l1.7497 1.458 13.122-10.497s.875 1.166.584 1.166c-.292 0-11.665 10.498-11.665 10.498l-.291 1.166-2.0416 1.75-1.1665-.875-15.7469 13.997h-2.3328l-8.7483 8.749c-2.2564.196-4.2116.435-6.1238 1.749z" fill-rule="evenodd"/></g></svg>

<svg xmlns="http://www.w3.org/2000/svg" viewBox="0 0 900 600">
<rect width="900" height="600" fill="#000"/>
<rect width="900" height="206.25" fill="#fff"/>
<rect width="900" height="187.5" fill="#007168"/>
<rect y="393.5" width="900" height="206.5" fill="#fff"/>
<rect y="412.5" width="900" height="187.5" fill="#fce100"/>
<path d="M 0,0 V 600 L 393.75,300 z" fill="#d21034"/>
<path d="M 189.54603,214.56867 L 128.78569,171.99623 L 69.930531,217.0706 L 91.643351,146.12847 L 30.587837,104.08263 L 104.76744,102.81043 L 125.88822,31.750306 L 150.02091,101.90617 L 224.12978,100.03443 L 164.86501,144.66535 z" transform="matrix(1.221793,2.542786e-2,-2.542786e-2,1.221793,-21.7604,145.5065)" fill="#fce100"/>
<path d="M 77.1122,167.913 L 118.946,167.913 C 122.312,171.689 129.822,173.229 136.975,167.868 C 150.087,160.688 175.454,167.913 175.454,167.913 L 180.449,162.606 L 168.273,122.645 L 163.902,117.962 C 163.902,117.962 154.537,112.343 136.741,114.216 C 118.946,116.089 112.702,113.592 112.702,113.592 C 112.702,113.592 97.0927,115.465 92.7219,117.65 C 92.2414,118.039 87.7268,122.645 87.7268,122.645 z" transform="matrix(1.259719,0,0,1.259719,-29.41569,140.9042)" fill="#fff" fill-rule="evenodd" stroke="#000" stroke-width="1.25" stroke-linecap="round" stroke-linejoin="round"/>
<path d="M 85.5415,157.611 C 85.5415,157.611 125.502,152.616 137.054,167.913 C 130.53,172.377 124.786,172.745 118.634,168.226 C 119.614,166.593 132.995,152.616 167.024,157.299" transform="matrix(1.259719,0,0,1.259719,-29.41569,140.9042)" fill="none" stroke="#000" stroke-width="1.25" stroke-linecap="round" stroke-linejoin="round"/>
<path d="M 128.312,117.65 L 128,161.67 M 163.902,118.274 L 171.395,153.24 M 93.1339,117.725 L 88.9756,135.757" transform="matrix(1.259719,0,0,1.259719,-29.41569,140.9042)" stroke="#000" stroke-width="1.25" stroke-linecap="round" stroke-linejoin="round"/>
<path d="M 49.9417,172.706 L 59.7799,184.241 C 60.9352,184.93 61.9614,184.886 62.9876,184.241 L 77.5681,166.745 L 83.6919,159.163 C 84.6401,158.04 84.9428,156.787 84.8583,155.664 L 96.5657,145.261 C 97.5234,145.327 98.0938,145.435 99.0515,145.5 C 97.92,145.207 97.0898,144.656 97.9807,143.416 L 100.605,141.375 L 102.646,143.999 C 102.646,143.999 99.7304,147.79 99.4388,147.79 C 99.1472,147.79 96.2311,147.79 96.2311,147.79 L 90.1073,153.331 L 92.7843,155.697 L 96.8143,166.745 L 101.772,163.245 L 98.5639,151.873 L 105.563,144.291 L 102.938,140.208 L 104.688,137.875 C 104.688,137.875 128.91,153.125 138.242,149.043 C 138.494,149.134 138.806,138.167 138.806,138.167 C 138.806,138.167 113.728,135.543 113.144,130.585 C 112.561,125.628 118.685,125.045 118.685,125.045 L 116.06,121.254 L 116.644,119.212 L 121.018,124.753 L 130.933,116.296 L 189.254,182.783 C 192.438,181.492 193.118,180.713 193.337,177.534 C 193.255,177.454 136.182,111.922 136.182,111.922 L 140.556,107.257 C 141.418,106.285 141.721,105.872 141.722,104.34 L 148.429,98.5082 C 150.446,99.2011 151.732,100.41 152.803,102.007 L 171.242,86.3801 C 171.728,86.8661 173.204,87.3521 174.206,86.8055 L 204.691,57.5442 L 171.466,81.0116 L 170.3,80.1368 C 170.3,79.1647 171.505,78.9243 170.3,77.2207 C 169.009,75.6716 167.092,78.6788 166.801,78.6788 C 166.509,78.6788 161.992,77.0824 161.002,75.06 L 160.677,80.4284 L 152.22,88.3019 L 145.805,88.0103 L 136.473,97.0501 L 135.307,100.549 L 136.765,103.466 C 136.765,103.466 131.807,107.84 131.807,107.548 C 131.807,107.257 130.805,106.259 130.762,106.13 L 135.015,102.299 L 135.598,99.6747 L 134.179,97.4589 C 133.749,97.7714 128.308,103.466 128.016,102.882 C 127.53,102.338 112.27,85.0942 112.27,85.0942 L 113.144,81.8865 L 103.23,71.0969 C 99.6155,69.849 93.8982,69.6389 92.7318,77.5123 C 91.8235,79.3616 84.2751,77.8039 84.2751,77.8039 L 80.1926,78.6788 L 57.1554,111.339 L 69.9862,126.794 L 96.2311,93.5508 L 97.0102,84.1332 L 102.517,90.2905 C 104.353,90.5264 106.102,90.5471 107.766,89.7073 L 123.315,107.063 L 120.726,109.589 C 121.601,110.561 122.203,111.182 123.078,112.154 C 123.953,111.571 124.788,110.871 125.663,110.287 C 125.955,110.677 126.441,111.416 126.733,111.805 C 125.43,112.514 124.516,113.458 123.213,114.167 C 121.128,112.808 119.115,111.116 119.268,108.423 L 110.52,115.713 L 110.228,117.171 L 84.2751,138.75 L 81.9422,139.042 L 81.359,145.749 L 98.2723,131.752 L 98.2723,129.71 L 100.022,131.168 L 113.144,120.671 C 113.144,120.671 114.019,121.837 113.728,121.837 C 113.436,121.837 102.063,132.335 102.063,132.335 L 101.772,133.501 L 99.7304,135.251 L 98.5639,134.376 L 82.817,148.373 L 80.4842,148.373 L 71.7359,157.122 C 69.4795,157.318 67.5243,157.557 65.6121,158.871 z" transform="matrix(1.259719,0,0,1.259719,-29.41569,140.9042)" fill="#000" fill-rule="evenodd" stroke="#000" stroke-width="1.25" stroke-linecap="round" stroke-linejoin="round"/>
</svg>
